packages/astro-components-stencil/src/icons/new-releases.svg

<svg width="24" height="24" viewBox="0 0 24 24" fill="none" xmlns="http://www.w3.org/2000/svg">
<path fill-rule="evenodd" clip-rule="evenodd" d="M22.42 11.3399L20.56 9.21994L20.82 6.40994C20.87 5.90994 20.53 5.44994 20.05 5.33994L17.29 4.70994L15.85 2.27994C15.59 1.84994 15.06 1.66994 14.6 1.86994L12 2.99994L9.41002 1.88994C8.95002 1.68994 8.41002 1.86994 8.16002 2.29994L6.71002 4.71994L3.96002 5.33994C3.47002 5.44994 3.13002 5.89994 3.18002 6.40994L3.44002 9.20994L1.58002 11.3399C1.25002 11.7199 1.25002 12.2799 1.58002 12.6599L3.44002 14.7799L3.18002 17.5999C3.13002 18.0999 3.47002 18.5599 3.95002 18.6699L6.71002 19.2999L8.15002 21.7199C8.41002 22.1499 8.94002 22.3299 9.41002 22.1299L12 20.9999L14.59 22.1099C15.05 22.3099 15.59 22.1299 15.84 21.6999L17.28 19.2699L20.04 18.6399C20.53 18.5299 20.86 18.0699 20.81 17.5699L20.55 14.7599L22.41 12.6399C22.75 12.2799 22.75 11.7199 22.42 11.3399ZM11 16.9999V14.9999H13V16.9999H11ZM11 11.9999C11 12.5499 11.45 12.9999 12 12.9999C12.55 12.9999 13 12.5499 13 11.9999V7.99994C13 7.44994 12.55 6.99994 12 6.99994C11.45 6.99994 11 7.44994 11 7.99994V11.9999Z" fill="black"/>
</svg>

<svg xmlns="http://www.w3.org/2000/svg" viewBox="0 0 24 24"><g xmlns="http://www.w3.org/2000/svg" id="new-releases" fill-rule="nonzero">
            <path d="M22.42 11.34l-1.86-2.12.26-2.81c.05-.5-.29-.96-.77-1.07l-2.76-.63-1.44-2.43a.997.997 0 00-1.25-.41L12 3 9.41 1.89c-.46-.2-1-.02-1.25.41L6.71 4.72l-2.75.62c-.49.11-.83.56-.78 1.07l.26 2.8-1.86 2.13c-.33.38-.33.94 0 1.32l1.86 2.12-.26 2.82c-.05.5.29.96.77 1.07l2.76.63 1.44 2.42c.26.43.79.61 1.26.41L12 21l2.59 1.11c.46.2 1 .02 1.25-.41l1.44-2.43 2.76-.63c.49-.11.82-.57.77-1.07l-.26-2.81 1.86-2.12c.34-.36.34-.92.01-1.3zM13 17h-2v-2h2v2zm-1-4c-.55 0-1-.45-1-1V8c0-.55.45-1 1-1s1 .45 1 1v4c0 .55-.45 1-1 1z"/>
        </g></svg>
